!!!!SEGMENT: pl-kk--kk-i-8--017_rozycki-jacek--aeterna-christi.krn
!!!cenid: 16xx:1158
!!!COM: Różycki, Jacek
!!!COM-rismID: pe30020620
!!!CDT: ~1635-~1703
!!!CNT: Polish
!!!OTL: Aeterna Christi
!!!PDT:
!!!AGN: Sacred
!!!SMS-siglum: PL-Kk
!!!SMS-shelfmark: Kk.I.8
!!!SMS-shelfwork: 017 W
!!!SMS-variant:
!!!SMS-altvar:
!!!NIFC-rismSourceID: 1001148867
!!!NIFC-islandoraID: pl-kk:2296
!!!URL-pdf-islandora: https://repozytorium.nifc.pl/islandora/object/pl-kk%3A2296/datastream/PDF/view
!!!URL-scan: https://polish.musicsources.pl/pl/lokalizacje/galeria/rekopisy/6141 @EN{Scan on Polish Music Sources Website} @PL{Skany w portalu Dziedzictwo Muzyki Polskiej w otwartym dostępie}
!!!ONB-nifc: UWAGA: A (skan 0010), T1 (0034), T2 (0057), B (0080). Następny utwór: Martinae celebri plaudite (trzecia pięciolinia)
!!!AIN: 1 alto 1 bass 2 tenor
!!!key:
**kern	**fb	**text	**text	**text	**text	**text	**kern	**text	**text	**text	**text	**text	**kern	**text	**text	**text	**text	**text	**kern	**text	**text	**text	**text	**text
*part4	*	*part4	*part4	*part4	*part4	*part4	*part3	*part3	*part3	*part3	*part3	*part3	*part2	*part2	*part2	*part2	*part2	*part2	*part1	*part1	*part1	*part1	*part1	*part1
*staff4	*	*staff4	*staff4	*staff4	*staff4	*staff4	*staff3	*staff3	*staff3	*staff3	*staff3	*staff3	*staff2	*staff2	*staff2	*staff2	*staff2	*staff2	*staff1	*staff1	*staff1	*staff1	*staff1	*staff1
*Ibass	*	*	*	*	*	*	*Itenor	*	*	*	*	*	*Itenor	*	*	*	*	*	*Ialto	*	*	*	*	*
*I"BASSVS.	*	*	*	*	*	*	*I"TENOR 2dus.	*	*	*	*	*	*I"Tenore 1mo	*	*	*	*	*	*I"alto.	*	*	*	*	*
*I'B	*	*	*	*	*	*	*I'T 2	*	*	*	*	*	*I'T 1	*	*	*	*	*	*I'A	*	*	*	*	*
*clefF4	*	*	*	*	*	*	*clefC4	*	*	*	*	*	*clefC4	*	*	*	*	*	*clefC3	*	*	*	*	*
*k[]	*	*	*	*	*	*	*k[]	*	*	*	*	*	*k[]	*	*	*	*	*	*k[]	*	*	*	*	*
*e:	*	*	*	*	*	*	*e:	*	*	*	*	*	*e:	*	*	*	*	*	*e:	*	*	*	*	*
*M3/1	*	*	*	*	*	*	*M3/1	*	*	*	*	*	*M3/1	*	*	*	*	*	*M3/1	*	*	*	*	*
=1-	=1-	=1-	=1-	=1-	=1-	=1-	=1-	=1-	=1-	=1-	=1-	=1-	=1-	=1-	=1-	=1-	=1-	=1-	=1-	=1-	=1-	=1-	=1-	=1-
*	*above	*	*	*	*	*	*	*	*	*	*	*	*	*	*	*	*	*	*	*	*	*	*	*
!	!	!	!	!	!	!	!LO:TX:a:t=P:problem=w źródle "H. R", "V" i "I" zapisane ołówkiem	!	!	!	!	!	!LO:TX:a:t=P:problem=w źródle "H. R", "V" i "j" zapisane ołówkiem	!	!	!	!	!	!LO:TX:a:t=P:problem=w źródle "H. R", "V" i "j" zapisane ołówkiem	!	!	!	!	!
!	!	!	!	!	!	!	!LO:TX:a:t=H. R.	!	!	!	!	!	!LO:TX:a:t=H. R.	!	!	!	!	!	!LO:TX:a:t=H. R.	!	!	!	!	!
!	!	!	!	!	!	!	!LO:TX:b:t=V	!	!	!	!	!	!LO:TX:b:t=V	!	!	!	!	!	!LO:TX:b:t=V	!	!	!	!	!
!LO:TX:b:t=HR.	!	!	!	!	!	!	!LO:TX:b:t=I	!	!	!	!	!	!LO:TX:b:t=j	!	!	!	!	!	!LO:TX:b:t=j	!	!	!	!	!
1E	.	Ae-	Ec-	De-	In	Pa-	1G	Ae-	Ec-	De-	In	Pa-	1Bn	Ae-	Ec-	De-	In	Pa-	1e	Ae-	Ec-	De-	In	Pa-
!	!	!	!	!	!	!	!LO:TX:a:t=P:problem=# below	!	!	!	!	!	!	!	!	!	!	!	!	!	!	!	!	!
1D#X	6	-ter-	-cle-	-uo-	his	-tri	1F#X	-ter-	-cle-	-vo-	his	-tri	1B	-ter-	-cle-	-vo-	his	-tri	1e	-ter-	-cle-	-vo-	his	-tri
!	!	!	!	!	!	!	!	!	!	!	!	!	!	!	!	!	!	!	!LO:TX:t=P:problem=kreska pseudotaktowa	!	!	!	!	!
!LO:TX:t=P:problem=kreska pseudotaktowa	!	!	!	!	!	!	!LO:TX:t=P:problem=kreska pseudotaktowa	!	!	!	!	!	!LO:TX:t=P:problem=kreska pseudotaktowa	!	!	!	!	!	!LO:TX:a:t=P:problem=# above	!	!	!	!	!
1D#	.	-na	-ſi-	-ta	pa-	ſi-	1F#	-na	-ſi-	-ta	pa-	ſi-	1B	-na	-ſi-	-ta	pa-	ſi-	1f#X	-na	-ſi-	-ta	pa-	ſi-
=2-	=2-	=2-	=2-	=2-	=2-	=2-	=2-	=2-	=2-	=2-	=2-	=2-	=2-	=2-	=2-	=2-	=2-	=2-	=2-	=2-	=2-	=2-	=2-	=2-
2E\	.	Chri-	-a-	San-	-ter-	-mul-	0G	Chri-	-a-	San-	-ter-	-mul-	0B	Chri-	-a-	ſan-	-ter-	-mul-	1.e	Chri-	-a-	ſan-	-ter-	-mul-
2D/ny	.	.	.	.	.	.	.	.	.	.	.	.	.	.	.	.	.	.	.	.	.	.	.	.
2C/	.	.	.	.	.	.	.	.	.	.	.	.	.	.	.	.	.	.	.	.	.	.	.	.
2BB/	.	.	.	.	.	.	.	.	.	.	.	.	.	.	.	.	.	.	2d\	.	-r(um)	-cto-	.	.
!LO:TX:t=P:problem=kreska pseudotaktowa	!	!	!	!	!	!	!LO:TX:t=P:problem=kreska pseudotaktowa	!	!	!	!	!	!LO:TX:t=P:problem=kreska pseudotaktowa	!	!	!	!	!	!	!	!	!	!	!
1AA	.	.	.	-cto-	.	-q(uae)	1A	.	.	-cto-	.	-q(uae)	1c	.	-rum	-cto-	.	-q(uae)	2c/	.	.	.	.	.
!	!	!	!	!	!	!	!	!	!	!	!	!	!	!	!	!	!	!	!LO:TX:t=P:problem=kreska pseudotaktowa	!	!	!	!	!
.	.	.	.	.	.	.	.	.	.	.	.	.	.	.	.	.	.	.	2d\	-sti	Prin-	-r(um)	-na	-q(uae)
=3-	=3-	=3-	=3-	=3-	=3-	=3-	=3-	=3-	=3-	=3-	=3-	=3-	=3-	=3-	=3-	=3-	=3-	=3-	=3-	=3-	=3-	=3-	=3-	=3-
*	*	*	*	*	*	*	*	*	*	*	*	*	*lig	*	*	*	*	*	*	*	*	*	*	*
1E	.	-sti	-rum	-rum	-na	Fi-	1G	-sti	-rum	-rum	-na	Fi-	1B	-ſti	Prin-	-rum	-na	Fi-	1e	.	.	.	.	Fi-
1AA	.	mu-	Prin-	fi-	glo-	-lis	1A	mu-	Prin-	Fi-	glo-	-li-	1c	mü-	.	.	.	.	1.e	mu-	-ci-	fi-	glo-	-li-
*	*	*	*	*	*	*	*	*	*	*	*	*	*Xlig	*	*	*	*	*	*	*	*	*	*	*
*	*	*	*	*	*	*	*	*	*	*	*	*	*2\right	*	*	*	*	*	*	*	*	*	*	*
!	!	!	!	!	!	!	!LO:TX:t=P:problem=kreska pseudotaktowa	!	!	!	!	!	!LO:TX:t=P:problem=all\right&colon; global	!	!	!	!	!	!	!	!	!	!	!
2.BB/	.	.	.	.	.	.	1F#X	-ne-	-ci-	.	-ri-	-o	2.B\	.	.	fi-	glo-	-li-	.	.	.	.	.	.
!	!	!	!	!	!	!	!	!	!	!	!	!	!	!	!	!	!	!	!LO:TX:t=P:problem=kreska pseudotaktowa	!	!	!	!	!
.	.	.	.	.	.	.	.	.	.	.	.	.	.	.	.	.	.	.	2d\	-ne-	-pes,	.	-ri-	-o,
!LO:TX:t=P:problem=kreska pseudotaktowa	!	!	!	!	!	!	!	!	!	!	!	!	!LO:TX:t=P:problem=kreska pseudotaktowa	!	!	!	!	!	!	!	!	!	!	!
4BB/	.	-ne-	-ci-	.	-ri-	.	.	.	.	.	.	.	4B\	-ne-	-ci-	.	-ri-	-o	.	.	.	.	.	.
=4-	=4-	=4-	=4-	=4-	=4-	=4-	=4-	=4-	=4-	=4-	=4-	=4-	=4-	=4-	=4-	=4-	=4-	=4-	=4-	=4-	=4-	=4-	=4-	=4-
!LO:TX:t=P:problem=kreska pseudotaktowa	!	!	!	!	!	!	!LO:TX:t=P:problem=kreska pseudotaktowa	!	!	!	!	!	!LO:TX:t=P:problem=kreska pseudotaktowa	!	!	!	!	!	!LO:TX:t=P:problem=kreska pseudotaktowa	!	!	!	!	!
0.E	.	-ra	-pes	-des	-a	.	0.G#X	-ra	-pes	-des	-a	.	0.B	-ra	-pes	-des	-a	.	0.e	-ra	.	-des,	-a,	ti-
=5-	=5-	=5-	=5-	=5-	=5-	=5-	=5-	=5-	=5-	=5-	=5-	=5-	=5-	=5-	=5-	=5-	=5-	=5-	=5-	=5-	=5-	=5-	=5-	=5-
!	!	!	!	!	!	!	!LO:N:acc=-	!	!	!	!	!	!	!	!	!	!	!	!	!	!	!	!	!
1E	.	A-	Bel-	In-	In	Te-	1Gn	A-	Bel-	In-	In	Ti-	1B	A-	Bel-	In-	In	Ti-	2e\	a-	Bel-	in-	in	.
.	.	.	.	.	.	.	.	.	.	.	.	.	.	.	.	.	.	.	2f\ny	-po-	.	.	.	-bi-
1E	.	-po-	-li	-ui-	his	-bi-	1G	-po-	-li	-ui-	his	-bi-	1B	-po-	-li	-ui-	his	-bi-	2g\	-sto-	-li	-vi-	his	.
.	.	.	.	.	.	.	.	.	.	.	.	.	.	.	.	.	.	.	2f\	.	tri-	.	.	-q(ae)
!LO:TX:t=P:problem=kreska pseudotaktowa	!	!	!	!	!	!	!LO:TX:t=P:problem=kreska pseudotaktowa	!	!	!	!	!	!LO:TX:t=P:problem=kreska pseudotaktowa	!	!	!	!	!	!	!	!	!	!	!
1E	.	-sto-	.	-cta	tri-	-q(ae)	1G	-sto-	.	-cta	Tri-	-q(ae)	1B	-ſto-	tri-	-cta	tri-	-q(ae)	2e\	-lo-	.	-cta	tri-	ſan-
!	!	!	!	!	!	!	!	!	!	!	!	!	!	!	!	!	!	!	!LO:TX:t=P:problem=kreska pseudotaktowa	!	!	!	!	!
.	.	.	.	.	.	.	.	.	.	.	.	.	.	.	.	.	.	.	2d\	.	.	.	.	-cte
=6-	=6-	=6-	=6-	=6-	=6-	=6-	=6-	=6-	=6-	=6-	=6-	=6-	=6-	=6-	=6-	=6-	=6-	=6-	=6-	=6-	=6-	=6-	=6-	=6-
2F#X\	.	-lo-	tri-	ſpes	-um-	ſan-	2F#X/	-lo-	tri-	ſpes	-um-	San-	0A#X	-lo-	-um-	ſpes	-um-	ſan-	1.c	-r(um)	-um-	ſpes	-(um)-	ſpi-
2E\	.	.	-um-	.	.	.	4G/	.	-um-	.	.	.	.	.	.	.	.	.	.	.	.	.	.	.
.	.	.	.	.	.	.	4A/	.	.	.	.	.	.	.	.	.	.	.	.	.	.	.	.	.
*	*	*	*	*	*	*	*2\right	*	*	*	*	*	*	*	*	*	*	*	*	*	*	*	*	*
2D/	.	.	-pha-	.	.	.	2B\	.	-pha-	.	.	.	.	.	.	.	.	.	.	.	.	.	.	.
2C/	.	.	.	.	.	.	2c\	.	.	.	.	.	.	.	.	.	.	.	4d\	.	.	.	-phat	.
.	.	.	.	.	.	.	.	.	.	.	.	.	.	.	.	.	.	.	4e\	.	-pha-	.	.	.
!LO:TX:t=P:problem=kreska pseudotaktowa	!	!	!	!	!	!	!LO:TX:t=P:problem=kreska pseudotaktowa	!	!	!	!	!	!LO:TX:t=P:problem=kreska pseudotaktowa	!	!	!	!	!	!LO:TX:t=P:problem=kreska pseudotaktowa	!	!	!	!	!
1BB	.	.	-les	.	.	.	1d	.	-les	.	.	.	1B	-rum	-pha-	.	-phat	-cte	1f	glo-	.	.	.	.
=7-	=7-	=7-	=7-	=7-	=7-	=7-	=7-	=7-	=7-	=7-	=7-	=7-	=7-	=7-	=7-	=7-	=7-	=7-	=7-	=7-	=7-	=7-	=7-	=7-
1G	.	-rum	Du-	cre-	-phat	-cte	1d	-rum	Du-	cre-	-phat	-cte	[>1B	.	-les	cre-	Fi-	Spi-	0g	.	-les	cre-	.	-ri-
(<1E	.	glo-	.	-den-	Fi-	Spi-	1.c#X	glo-	.	-den-	Fi-	Spi-	1.B]	glo-	.	-den-	-li-	.	.	.	.	.	.	.
*2\right	*	*	*	*	*	*	*	*	*	*	*	*	*	*	*	*	*	*	*	*	*	*	*	*
!LO:TX:a:t=P:problem=# above	!	!	!	!	!	!	!	!	!	!	!	!	!	!	!	!	!	!	!LO:TX:a:t=P:problem=# above	!	!	!	!	!
2.F#X\)	.	.	.	.	.	.	.	.	.	.	.	.	.	.	.	.	.	.	2f#X\	-ri-	Du-	-den-	Fi-	-tus,
!	!	!	!	!	!	!	!	!	!	!	!	!	!	!	!	!	!	!	!LO:TX:t=P:problem=kreska pseudotaktowa	!	!	!	!	!
!	!	!	!	!	!	!	!LO:TX:t=P:problem=kreska pseudotaktowa	!	!	!	!	!	!LO:TX:t=P:problem=kreska pseudotaktowa	!	!	!	!	!	!LO:TX:a:t=P:problem=# above	!	!	!	!	!
.	.	.	.	.	.	.	2c#\	-ri-	.	-ti-	-li-	-ri-	2A#X\	-ri-	Du-	-ti-	-us	-ri-	2f#X\	.	.	-ti-	-li-	.
!LO:TX:t=P:problem=all\right&colon; global	!	!	!	!	!	!	!	!	!	!	!	!	!	!	!	!	!	!	!	!	!	!	!	!
4F#\	.	-ri-	.	-ti-	-li-	-ri-	.	.	.	.	.	.	.	.	.	.	.	.	.	.	.	.	.	.
=8-	=8-	=8-	=8-	=8-	=8-	=8-	=8-	=8-	=8-	=8-	=8-	=8-	=8-	=8-	=8-	=8-	=8-	=8-	=8-	=8-	=8-	=8-	=8-	=8-
!LO:TX:t=P:problem=kreska pseudotaktowa	!	!	!	!	!	!	!LO:TX:t=P:problem=kreska pseudotaktowa	!	!	!	!	!	!LO:TX:t=P:problem=kreska pseudotaktowa	!	!	!	!	!	!LO:TX:t=P:problem=kreska pseudotaktowa	!	!	!	!	!
0.BB	.	-am	-ces	-um	-us	-tus	0.B	-am	-ces	-um	-us	-tus	0.B	-am	-ces	-um	.	-tus	0.fny	-am	-ces	-(um)	-us,	.
=9-	=9-	=9-	=9-	=9-	=9-	=9-	=9-	=9-	=9-	=9-	=9-	=9-	=9-	=9-	=9-	=9-	=9-	=9-	=9-	=9-	=9-	=9-	=9-	=9-
1G	.	Pal-	Cae-	per-	In	Si-	1d	Pal-	cae-	Per-	In	Si-	1B	Pal-	cae-	per-	In	Si-	1g	Pal-	Cae-	per-	in	ſi-
1F#X	.	-mas	-leſ-	-fe-	his	-cut	1d	.	-leſ-	-fe-	his	-cut	1An	.	-leſ-	-fe-	his	-cut	1a	-mas	-leſ-	-fe-	his	-cut
!LO:TX:t=P:problem=kreska pseudotaktowa	!	!	!	!	!	!	!LO:TX:t=P:problem=kreska pseudotaktowa	!	!	!	!	!	!LO:TX:t=P:problem=kreska pseudotaktowa	!	!	!	!	!	!LO:TX:t=P:problem=kreska pseudotaktowa	!	!	!	!	!
1F#	.	et	-tis	-cta	vo-	fu-	1d	-mas	-tis	-cta	vo-	fu-	1A	-mas	-tis	-cta	vo-	fu-	1a	et	-tis	-cta	vo-	fu-
=10-	=10-	=10-	=10-	=10-	=10-	=10-	=10-	=10-	=10-	=10-	=10-	=10-	=10-	=10-	=10-	=10-	=10-	=10-	=10-	=10-	=10-	=10-	=10-	=10-
2G\	.	Hy-	au-	Chri-	-lun-	-it	1.B	et	au-	Chri-	-lun-	-it	2B\	et	au-	Chri-	-lun-	-it	1.g	Hy-	au-	Chri-	-lun-	-it
2F\ny	.	.	.	.	.	.	.	.	.	.	.	.	2A\	.	.	.	.	.	.	.	.	.	.	.
2E\	.	.	.	.	.	.	.	.	.	.	.	.	2G/	hÿ-	.	.	.	.	.	.	.	.	.	.
!	!	!	!	!	!	!	!LO:TX:t=P:problem=all\right&colon; global	!	!	!	!	!	!	!	!	!	!	!	!	!	!	!	!	!
2D/	.	.	.	.	.	.	4c\ny	hÿ-	.	.	.	.	4A/	.	.	.	.	.	2f\	.	.	.	.	.
.	.	.	.	.	.	.	4d\	.	.	.	.	.	4B/	.	.	.	.	.	.	.	.	.	.	.
!LO:TX:t=P:problem=kreska pseudotaktowa	!	!	!	!	!	!	!LO:TX:t=P:problem=kreska pseudotaktowa	!	!	!	!	!	!LO:TX:t=P:problem=kreska pseudotaktowa	!	!	!	!	!	!	!	!	!	!	!
1C	.	.	.	.	.	.	1e	.	.	.	.	.	1c	.	-lae	-ſti	-tas	.	2e\	.	.	-ſti	.	ſit
!	!	!	!	!	!	!	!	!	!	!	!	!	!	!	!	!	!	!	!LO:TX:t=P:problem=kreska pseudotaktowa	!	!	!	!	!
.	.	.	.	.	.	.	.	.	.	.	.	.	.	.	.	.	.	.	2f\	.	-lae	.	.	.
=11-	=11-	=11-	=11-	=11-	=11-	=11-	=11-	=11-	=11-	=11-	=11-	=11-	=11-	=11-	=11-	=11-	=11-	=11-	=11-	=11-	=11-	=11-	=11-	=11-
1BB	.	-mnos	-lae	-ſti	-tas	ſit	1d	-mnos	-lae	-ſti	-tas	ſit	1d,	-mnos	mi-	cha-	Spi-	ſit	1g,	-mnos	mi-	Cha-	-tas	ju-
1C	.	de-	mi-	cha-	Spi-	iu-	1e	de-	mi-	cha-	Spi-	iu-	1c	de-	.	-ri-	-ri-	iu-	1.g	de-	.	.	ſpi-	-gi-
!	!	!	!	!	!	!	!LO:TX:t=P:problem=kreska pseudotaktowa	!	!	!	!	!	!LO:TX:t=P:problem=kreska pseudotaktowa	!	!	!	!	!	!	!	!	!	!	!
2.D/	.	.	.	.	.	.	1d	-bi-	-li-	-ri-	-ri-	-gi-	1A	-bi-	-li-	-tas	-tus	-gi-	.	.	.	.	.	.
!	!	!	!	!	!	!	!	!	!	!	!	!	!	!	!	!	!	!	!LO:TX:t=P:problem=kreska pseudotaktowa	!	!	!	!	!
.	.	.	.	.	.	.	.	.	.	.	.	.	.	.	.	.	.	.	2f#X\	-bi-	-li-	-ri-	-ri-	.
!LO:TX:t=P:problem=kreska pseudotaktowa	!	!	!	!	!	!	!	!	!	!	!	!	!	!	!	!	!	!	!	!	!	!	!	!
4D/	.	-bi-	-li-	-ri-	-ri-	-gi-	.	.	.	.	.	.	.	.	.	.	.	.	.	.	.	.	.	.
=12-	=12-	=12-	=12-	=12-	=12-	=12-	=12-	=12-	=12-	=12-	=12-	=12-	=12-	=12-	=12-	=12-	=12-	=12-	=12-	=12-	=12-	=12-	=12-	=12-
!LO:TX:t=P:problem=kreska pseudotaktowa	!	!	!	!	!	!	!LO:TX:t=P:problem=kreska pseudotaktowa	!	!	!	!	!	!LO:TX:t=P:problem=kreska pseudotaktowa	!	!	!	!	!	!LO:TX:t=P:problem=kreska pseudotaktowa	!	!	!	!	!
0.GG	.	-tos	-tes	-tas	-t(us)	-ter	0.d	-tos	-tes	-tas	-tus	-ter	0.B,	-tos	-tes	.	.	-ter	0.g,	-tos	-tes	-tas	-t(us),	-ter
=13-	=13-	=13-	=13-	=13-	=13-	=13-	=13-	=13-	=13-	=13-	=13-	=13-	=13-	=13-	=13-	=13-	=13-	=13-	=13-	=13-	=13-	=13-	=13-	=13-
1E	.	lae-	et	Mun-	Cae-	Sae-	1e	lae-	et	mun-	Cae-	Sae-	1B	lae-	et	mun-	Cae-	Sae-	1g	.	et	Mun-	Cae-	ſae-
!	!	!	!	!	!	!	!	!	!	!	!	!	!	!	!	!	!	!	!LO:TX:a:t=P:problem=# above	!	!	!	!	!
1D#X	.	-tis	ve-	-di	-lum	-clum	1f#X	-tis	ve-	-di	-lum	-clum	1B	-tis	ve-	-di	-lum	-clum	1f#X	lae-	ve-	-di	-l(um)	-cl(um)
!LO:TX:t=P:problem=kreska pseudotaktowa	!	!	!	!	!	!	!LO:TX:t=P:problem=kreska pseudotaktowa	!	!	!	!	!	!LO:TX:t=P:problem=kreska pseudotaktowa	!	!	!	!	!	!LO:TX:t=P:problem=kreska pseudotaktowa	!	!	!	!	!
1D#	.	Ca-	-ra	.	re-	.	1f#	ca-	-ra	.	re-	.	1B	Ca-	-ra	.	re-	.	1f#	.	-ra	.	re-	.
=14-	=14-	=14-	=14-	=14-	=14-	=14-	=14-	=14-	=14-	=14-	=14-	=14-	=14-	=14-	=14-	=14-	=14-	=14-	=14-	=14-	=14-	=14-	=14-	=14-
2E\	.	-na-	mun-	Ty-	-ple-	per	1.e	-na-	mun-	Ty-	-ple-	per	0B	-na-	mun-	Ty-	-ple-	per	(>1.e	-tis	Mun-	Ty-	-ple-	p(er)
2D\ny	.	.	.	-ran-	.	.	.	.	.	.	.	.	.	.	.	.	.	.	.	.	.	.	.	.
2C/	.	.	.	-num	.	.	.	.	.	.	.	.	.	.	.	.	.	.	.	.	.	.	.	.
2BB/	.	.	.	.	.	.	2d\	.	.	-ran-	.	o-	.	.	.	.	.	.	4f\ny	ca-	.	-ran-	.	.
.	.	.	.	.	.	.	.	.	.	.	.	.	.	.	.	.	.	.	4g\)	.	.	.	.	.
!LO:TX:t=P:problem=kreska pseudotaktowa	!	!	!	!	!	!	!	!	!	!	!	!	!LO:TX:t=P:problem=kreska pseudotaktowa	!	!	!	!	!	!LO:TX:t=P:problem=kreska pseudotaktowa	!	!	!	!	!
1AA	.	.	.	.	.	o-	2c#X\	.	.	.	.	.	1c	.	-di	-ran-	.	o-	1a	-na-	-di	-ni	.	o-
!	!	!	!	!	!	!	!LO:TX:t=P:problem=kreska pseudotaktowa	!	!	!	!	!	!	!	!	!	!	!	!	!	!	!	!	!
.	.	.	.	.	.	.	2d\	.	.	-num	.	-mne	.	.	.	.	.	.	.	.	.	.	.	.
=15-	=15-	=15-	=15-	=15-	=15-	=15-	=15-	=15-	=15-	=15-	=15-	=15-	=15-	=15-	=15-	=15-	=15-	=15-	=15-	=15-	=15-	=15-	=15-	=15-
1E	.	-mus	-di	con-	-tur	-mne	1e	-mus	-di	con-	-tur	glo-	1B	-mus	lu-	-num	-tur	-mne	1g	-mus	.	Con-	-t(ur)	-mne
!	!	!	!	!	!	!	!	!	!	!	!	!	!	!	!	!	!	!	!LO:TX:a:t=P:problem=# above	!	!	!	!	!
1AA	.	men-	lu-	.	gau-	glo-	1.e	men-	lu-	.	gau-	-ri-	1c	men-	-mi-	Con-	gau-	glo-	1.f#X	men-	lu-	.	gau-	glo-
!	!	!	!	!	!	!	!	!	!	!	!	!	!LO:TX:t=P:problem=kreska pseudotaktowa	!	!	!	!	!	!	!	!	!	!	!
2.BB/	.	.	.	.	.	.	.	.	.	.	.	.	1B	-ti-	-na	-te-	-di-	-ri-	.	.	.	.	.	.
!	!	!	!	!	!	!	!LO:TX:t=P:problem=kreska pseudotaktowa	!	!	!	!	!	!	!	!	!	!	!	!LO:TX:t=P:problem=kreska pseudotaktowa	!	!	!	!	!
.	.	.	.	.	.	.	2d#X\	-ti-	-mi-	-te-	-di-	-a	.	.	.	.	.	.	2f#\	-ti-	-mi-	-te-	-di-	-ri-
!LO:TX:t=P:problem=kreska pseudotaktowa	!	!	!	!	!	!	!	!	!	!	!	!	!	!	!	!	!	!	!	!	!	!	!	!
4BB/	.	-ti-	-mi-	-te-	-di-	-ri-	.	.	.	.	.	.	.	.	.	.	.	.	.	.	.	.	.	.
=16-	=16-	=16-	=16-	=16-	=16-	=16-	=16-	=16-	=16-	=16-	=16-	=16-	=16-	=16-	=16-	=16-	=16-	=16-	=16-	=16-	=16-	=16-	=16-	=16-
0.E;<	.	-bus	-na	-rit	-o	-a.	0.e;<	-bus	-na	-rit	-o	.	0.B;<	-bus	.	-rit	-o	-a.	0.e;;	-b(us).	-na.	-rit.	-o.	-a.
=||	=||	=||	=||	=||	=||	=||	=||	=||	=||	=||	=||	=||	=-	=-	=-	=-	=-	=-	=||	=||	=||	=||	=||	=||
*-	*-	*-	*-	*-	*-	*-	*-	*-	*-	*-	*-	*-	*-	*-	*-	*-	*-	*-	*-	*-	*-	*-	*-	*-
!!!system-decoration: [(s1,s2,s3,s4)]
!!!RDF**kern: l = terminal long
!!!RDF**kern: > = above
!!!RDF**kern: < = below
!!!EED: Antoni Szymański
!!!EEV: 2021-04-05
!!!ENC: Andrzej Gręziak
!!!END: 2021-03-25
